assets/images/bring-forward.svg

<svg width='24' height='24' viewBox='0 0 24 24' xmlns='http://www.w3.org/2000/svg'>
    <g id='Forwad' fill='none' fillRule='evenodd'>
        <g id='Group-2' transform='translate(3 5)' fill='#000'>
            <g id='Group'>
                <path d='M11.2,4 L12,4 C12.5522847,4 13,4.44771525 13,5 L13,12 C13,12.5522847 12.5522847,13 12,13 L5,13 C4.44771525,13 4,12.5522847 4,12 L4,11.2 C4,11.0895431 4.08954305,11 4.2,11 L10,11 C10.5522847,11 11,10.5522847 11,10 L11,4.2 C11,4.08954305 11.0895431,4 11.2,4 Z'
                      id='Path' opacity='0.3' />
                <rect id='Rectangle' width='9' height='9' rx='1' />
            </g>
            <path d='M15.6320065,6.65304963 C14.2223288,4.91224268 14.3488663,2.28772591 16.7968761,0.30536668 C16.3566491,1.65266034 16.2221278,2.93254472 17.8080152,4.89095254 L19.4400217,3.56937972 L18.9226322,8.49201195 L14,7.97462246 L15.6320065,6.65304963 Z'
                  id='Path' transform='rotate(180 16.72 4.399)' />
        </g>
    </g>
</svg>

<svg width="24" height="24" xmlns="http://www.w3.org/2000/svg"><g><g transform="translate(3 5)"><path d="M11.2 4h.8a1 1 0 0 1 1 1v7a1 1 0 0 1-1 1H5a1 1 0 0 1-1-1v-.8c0-.11.09-.2.2-.2H10a1 1 0 0 0 1-1V4.2c0-.11.09-.2.2-.2z" opacity=".3"/><rect width="9" height="9" rx="1"/></g><path d="M20.808 7.145c1.41 1.74 1.283 4.365-1.165 6.348.44-1.348.575-2.628-1.011-4.586L17 10.229l.517-4.923 4.923.517-1.632 1.322z"/></g></svg>
